X: 162
T: A xi li xi
%%abc-version 2.0
%%abcx-abcm2ps-target-version 5.9.1 (29 Sep 2008)
%%abc-creator hum2abc beta
%%abcx-conversion-date 2013/10/02 07:44:27
%%abc-edited-by Helmut Schaffrath
%%humdrum-veritas 909134815
%%humdrum-veritas-data 1988841028
%%continueall 1
%%barnumbers 0
L: 1/8
M: 2/4
K: C
d2e c [I:setbarnb 1]| 
d4 | 
d ec2 | 
d4 | 
d cA2 | 
c2A d | 
d cA2 | 
c4 | 
A d c d | 
A d c d | 
G2D2 | 
G2D2 | 
d2c A | 
G c A G | 
c2G A | 
c2z2 |]  



